_includes/svg/stack-overflow.svg

<svg id="Bold" enable-background="new 0 0 24 24" height="512" viewBox="0 0 24 24" width="512" xmlns="http://www.w3.org/2000/svg"><path d="m6.444 14.839 10.338 2.196.433-2.089-10.338-2.212z"/><path d="m6.215 17.571h10.566v2.127h-10.566z"/><path d="m7.8 9.831 9.572 4.526.887-1.944-9.577-4.538z"/><path d="m17.373 14.358-.001-.001-.001.001z"/><path d="m2 15.429v8.571h18.992v-8.571h-2.113v6.428h-14.766v-6.428z"/><path d="m10.453 5.063 8.109 6.873 1.346-1.65-8.109-6.873z"/><path d="m22 8.587-6.302-8.587-1.691 1.286 6.302 8.587z"/></svg>

<?xml version="1.0" encoding="UTF-8" standalone="no"?>
<!-- Created with Inkscape (http://www.inkscape.org/) -->

<svg
   xmlns:dc="http://purl.org/dc/elements/1.1/"
   xmlns:cc="http://creativecommons.org/ns#"
   xmlns:rdf="http://www.w3.org/1999/02/22-rdf-syntax-ns#"
   xmlns:svg="http://www.w3.org/2000/svg"
   xmlns="http://www.w3.org/2000/svg"
   xmlns:sodipodi="http://sodipodi.sourceforge.net/DTD/sodipodi-0.dtd"
   xmlns:inkscape="http://www.inkscape.org/namespaces/inkscape"
   width="115.29431mm"
   height="116.3923mm"
   viewBox="0 0 115.29431 116.3923"
   version="1.1"
   id="svg8"
   inkscape:version="0.92.3 (2405546, 2018-03-11)"
   sodipodi:docname="stack-overflow.svg">
  <defs
     id="defs2" />
  <sodipodi:namedview
     id="base"
     pagecolor="#ffffff"
     bordercolor="#666666"
     borderopacity="1.0"
     inkscape:pageopacity="0.0"
     inkscape:pageshadow="2"
     inkscape:zoom="0.98994949"
     inkscape:cx="219.91871"
     inkscape:cy="204.47968"
     inkscape:document-units="mm"
     inkscape:current-layer="layer1"
     showgrid="false"
     inkscape:window-width="1920"
     inkscape:window-height="1012"
     inkscape:window-x="0"
     inkscape:window-y="0"
     inkscape:window-maximized="1"
     fit-margin-top="0"
     fit-margin-left="0"
     fit-margin-right="0"
     fit-margin-bottom="0" />
  <metadata
     id="metadata5">
    <rdf:RDF>
      <cc:Work
         rdf:about="">
        <dc:format>image/svg+xml</dc:format>
        <dc:type
           rdf:resource="http://purl.org/dc/dcmitype/StillImage" />
        <dc:title></dc:title>
      </cc:Work>
    </rdf:RDF>
  </metadata>
  <g
     inkscape:label="Layer 1"
     inkscape:groupmode="layer"
     id="layer1"
     transform="translate(-43.654761,-84.792216)">
    <g
       id="g38"
       transform="matrix(5.7647157,0,0,4.8496792,32.12533,84.792216)"
       inkscape:export-xdpi="5.3999996"
       inkscape:export-ydpi="5.3999996">
      <path
         id="path10"
         d="M 6.444,14.839 16.782,17.035 17.215,14.946 6.877,12.734 Z"
         inkscape:connector-curvature="0" />
      <path
         id="path12"
         d="m 6.215,17.571 h 10.566 v 2.127 H 6.215 Z"
         inkscape:connector-curvature="0" />
      <path
         id="path14"
         d="m 7.8,9.831 9.572,4.526 0.887,-1.944 -9.577,-4.538 z"
         inkscape:connector-curvature="0" />
      <path
         id="path16"
         d="m 17.373,14.358 -0.001,-0.001 -0.001,0.001 z"
         inkscape:connector-curvature="0" />
      <path
         id="path18"
         d="M 2,15.429 V 24 h 18.992 v -8.571 h -2.113 v 6.428 H 4.113 v -6.428 z"
         inkscape:connector-curvature="0" />
      <path
         id="path20"
         d="m 10.453,5.063 8.109,6.873 1.346,-1.65 -8.109,-6.873 z"
         inkscape:connector-curvature="0" />
      <path
         id="path22"
         d="M 22,8.587 15.698,0 14.007,1.286 20.309,9.873 Z"
         inkscape:connector-curvature="0" />
    </g>
  </g>
</svg>
